src/svgs/brush-bg-1.svg

<?xml version="1.0" encoding="UTF-8"?>
<!DOCTYPE svg  PUBLIC '-//W3C//DTD SVG 1.1//EN'  'http://www.w3.org/Graphics/SVG/1.1/DTD/svg11.dtd'>
<svg clip-rule="evenodd" fill-rule="evenodd" stroke-linejoin="round" stroke-miterlimit="2" version="1.1" viewBox="0 0 28 28" xml:space="preserve" xmlns="http://www.w3.org/2000/svg">
    <g transform="matrix(.27717 0 0 .27717 -4.8702e-6 0)">
        <rect width="100" height="100" fill="none"/>
        <g transform="matrix(3.6079 0 0 3.6079 .70062 0)">
            <path d="m11.254 25.855c-0.123 0.067-0.246 0.134-0.37 0.2-0.277 0.059-0.764 0.212-0.991 0.143 0.991-0.627-1.26 0.113-0.052-0.548 0.354-0.35-0.833 0.181 0.018-0.366 0.417-0.621-1.464 0.537-1.275 0.18 0.53-0.43 0.524-0.523-0.055-0.465 0.374-0.285 1.123-0.856 0.098-0.505-1.066 0.25 0.879-1.079-0.406-0.455-0.579-0.09-1.777 0.611-2.651 0.892-0.495 0.169-2.246 0.869-1.889 0.642 0.874-0.211 0.247-0.41 0.013-0.347-9e-3 3e-3 -0.018 6e-3 -0.026 9e-3 8e-3 -3e-3 0.016-6e-3 0.026-9e-3 0.483-0.166 2.267-0.877 0.863-0.401-0.757 0.158-1.573 0.333-2.298 0.481 1.207-0.399 2.448-0.812 3.641-1.266-0.933 0.163-2.014 0.717-3.016 0.822-0.994 0.443-1.846-0.533-1.91-1.414-0.514 0.421 0.181-1.015-0.598-0.232 0.222-0.438 0.455-1.65-0.37-1.147-0.094-0.934 0.87-1.732 1.454-2.484 0.337-0.409 1.561-1.434 0.764-1.378-0.437 8e-3 -0.805 0.909-0.551 0.031-0.705 0.616-0.021-0.111-0.337 0.043-0.01 0.024-0.012 0.028-3e-3 1e-3l3e-3 -1e-3c0.066-0.166 0.473-1.298-0.183-0.447 0.292-0.717 1.277-2.048 2.034-2.842 2.938-3.17 5.831-6.383 8.818-9.509 1.061-1.045 2.056-2.176 3.258-3.063 0.661-0.213-0.18 0.442 0.585 8e-3 0.272 0.165 0.256-0.048-0.125 0.513 0.661-0.489 0.491-0.265 0.385 0.251 0.753-0.693-0.043 0.602 0.566-0.297 0.016 0.194-0.185 0.586 0.516 0.202 1.214-0.845-0.922 1.173 0.243 0.237 0.286 0.231-1.12 1.069-0.311 0.816-0.595 0.797 0.417-0.279 0.353 2e-3 0.383-0.282 1.763-1.548 1.539-1.239-0.756 0.538-0.138 0.518 0.125 0.327 9e-3 -7e-3 0.017-0.013 0.024-0.019-8e-3 6e-3 -0.015 0.013-0.024 0.019-0.395 0.312-1.862 1.64-0.716 0.707 0.55-0.229 1.868-1.338 1.929-1.169-1.086 0.785-2.122 1.679-3.12 2.555-0.4 0.229-2.091 1.67-2.245 1.936 1.541-1.157 2.902-2.547 4.492-3.634 0.711-0.642 1.481-0.908 2.212-0.444 0.646 0.545 1.335 1.469 1.403 2.293 0.181 0.342-0.269 0.928-0.021 0.859 0.011 0.184 0.629 0.059 0.971-0.183-0.514 0.484 0.157 1.203 0.594 0.74 0.022-0.04 0.051-0.079 0.089-0.117-0.028 0.045-0.058 0.084-0.089 0.117-0.19 0.351 0.206 0.741 0.455 0.199-0.165 0.422-0.096 1.07-0.042 1.274 1.292-0.512 0.039 1.546-0.375 2.035-1.219 1.648-2.637 3.135-4.06 4.601 1.348-0.621 2.718-1.265 4.137-1.748 1.106-0.837 0.968 0.739 1.164 1.385 0.088 0.605 0.364 1.351 0.792 1.317-0.752 0.666 0.72 0.471 0.181 1.342-0.084 0.786 1.257 0.316 0.317 0.969-0.383 1.315-1.714 1.947-2.934 2.368-0.861 0.398-1.675 0.876-2.463 1.396 0 0 2.501 0.258 5.337 1.599 0.142 0.085 0.495 0.362 0.414 0.541-0.481-0.072 0.63 0.941-0.414 0.521 1.036 0.454-0.577 0.355 0.199 0.888-0.707-0.032 0.683 0.08-0.171 0.247 0.392 0.535 0.532 1.042-0.136 0.739 0.624 0.662-0.931-0.266-0.613 0.405-0.29 8e-3 0.559 0.412-0.43 0.396-2.114-0.385-4.211-1.052-6.371-1.279-2.877-0.446-5.806-0.124-8.654-0.251l0.283 0.011zm13.04-6.795c0.355-0.307 0.71-0.217 0.477 0.035 0.651-0.154 0.933-0.436 0.789-0.642 0.013-0.276-1.423 0.522-1.409 0.614l-1e-3 0.044 0.144-0.051zm0.704-0.187c0.063-0.201 0.23-0.262 0.312-0.247s0.078 0.107-0.199 0.209l-0.113 0.038zm-22.863-5.472c0.297-0.312-1.003-0.021-0.167-0.566-0.855 0.521 0.036-0.598-0.746-0.306 0.383-0.496-0.404 0.455-0.092-0.25-0.587 0.013-1.025-0.144-0.466-0.474-0.797 0.116 0.666-0.54 0.018-0.65 0.141-0.214-0.583 0.196-0.069-0.513 1.354-1.338 2.903-2.519 4.165-3.97 1.786-1.859 3.041-4.147 4.581-6.147 0.305-0.34 0.64 0.662 1.143 1.001 0.383 0.609 0.691-0.497 0.937 0.086 0.218-0.393 0.176 0.113 0.242 0.164-0.198 1.015 0.847-0.469 0.296 0.697-0.45 2.051-1.935 3.667-3.147 5.316-1.721 2.156-3.679 4.211-6.092 5.586-0.134 0.06-0.514 0.176-0.603 0.026z"/>
        </g>
    </g>
</svg>

<?xml version="1.0" encoding="UTF-8" standalone="no"?>
<!DOCTYPE svg PUBLIC "-//W3C//DTD SVG 1.1//EN" "http://www.w3.org/Graphics/SVG/1.1/DTD/svg11.dtd">
<svg width="100%" height="100%" viewBox="0 0 28 28" version="1.1" xmlns="http://www.w3.org/2000/svg" xmlns:xlink="http://www.w3.org/1999/xlink" xml:space="preserve" xmlns:serif="http://www.serif.com/" style="fill-rule:evenodd;clip-rule:evenodd;stroke-linejoin:round;stroke-miterlimit:2;">
    <g id="Artboard1" transform="matrix(0.27717,0,0,0.27717,-4.87019e-06,0)">
        <rect x="0" y="0" width="100" height="100" style="fill:none;"/>
        <g transform="matrix(3.60789,0,0,3.60789,0.700619,0)">
            <path d="M11.254,25.855C11.131,25.922 11.008,25.989 10.884,26.055C10.607,26.114 10.12,26.267 9.893,26.198C10.884,25.571 8.633,26.311 9.841,25.65C10.195,25.3 9.008,25.831 9.859,25.284C10.276,24.663 8.395,25.821 8.584,25.464C9.114,25.034 9.108,24.941 8.529,24.999C8.903,24.714 9.652,24.143 8.627,24.494C7.561,24.744 9.506,23.415 8.221,24.039C7.642,23.949 6.444,24.65 5.57,24.931C5.075,25.1 3.324,25.8 3.681,25.573C4.555,25.362 3.928,25.163 3.694,25.226C3.685,25.229 3.676,25.232 3.668,25.235C3.676,25.232 3.684,25.229 3.694,25.226C4.177,25.06 5.961,24.349 4.557,24.825C3.8,24.983 2.984,25.158 2.259,25.306C3.466,24.907 4.707,24.494 5.9,24.04C4.967,24.203 3.886,24.757 2.884,24.862C1.89,25.305 1.038,24.329 0.974,23.448C0.46,23.869 1.155,22.433 0.376,23.216C0.598,22.778 0.831,21.566 0.006,22.069C-0.088,21.135 0.876,20.337 1.46,19.585C1.797,19.176 3.021,18.151 2.224,18.207C1.787,18.215 1.419,19.116 1.673,18.238C0.968,18.854 1.652,18.127 1.336,18.281C1.326,18.305 1.324,18.309 1.333,18.282L1.336,18.281C1.402,18.115 1.809,16.983 1.153,17.834C1.445,17.117 2.43,15.786 3.187,14.992C6.125,11.822 9.018,8.609 12.005,5.483C13.066,4.438 14.061,3.307 15.263,2.42C15.924,2.207 15.083,2.862 15.848,2.428C16.12,2.593 16.104,2.38 15.723,2.941C16.384,2.452 16.214,2.676 16.108,3.192C16.861,2.499 16.065,3.794 16.674,2.895C16.69,3.089 16.489,3.481 17.19,3.097C18.404,2.252 16.268,4.27 17.433,3.334C17.719,3.565 16.313,4.403 17.122,4.15C16.527,4.947 17.539,3.871 17.475,4.152C17.858,3.87 19.238,2.604 19.014,2.913C18.258,3.451 18.876,3.431 19.139,3.24C19.148,3.233 19.156,3.227 19.163,3.221C19.155,3.227 19.148,3.234 19.139,3.24C18.744,3.552 17.277,4.88 18.423,3.947C18.973,3.718 20.291,2.609 20.352,2.778C19.266,3.563 18.23,4.457 17.232,5.333C16.832,5.562 15.141,7.003 14.987,7.269C16.528,6.112 17.889,4.722 19.479,3.635C20.19,2.993 20.96,2.727 21.691,3.191C22.337,3.736 23.026,4.66 23.094,5.484C23.275,5.826 22.825,6.412 23.073,6.343C23.084,6.527 23.702,6.402 24.044,6.16C23.53,6.644 24.201,7.363 24.638,6.9C24.66,6.86 24.689,6.821 24.727,6.783C24.699,6.828 24.669,6.867 24.638,6.9C24.448,7.251 24.844,7.641 25.093,7.099C24.928,7.521 24.997,8.169 25.051,8.373C26.343,7.861 25.09,9.919 24.676,10.408C23.457,12.056 22.039,13.543 20.616,15.009C21.964,14.388 23.334,13.744 24.753,13.261C25.859,12.424 25.721,14 25.917,14.646C26.005,15.251 26.281,15.997 26.709,15.963C25.957,16.629 27.429,16.434 26.89,17.305C26.806,18.091 28.147,17.621 27.207,18.274C26.824,19.589 25.493,20.221 24.273,20.642C23.412,21.04 22.598,21.518 21.81,22.038C21.81,22.038 24.311,22.296 27.147,23.637C27.289,23.722 27.642,23.999 27.561,24.178C27.08,24.106 28.191,25.119 27.147,24.699C28.183,25.153 26.57,25.054 27.346,25.587C26.639,25.555 28.029,25.667 27.175,25.834C27.567,26.369 27.707,26.876 27.039,26.573C27.663,27.235 26.108,26.307 26.426,26.978C26.136,26.986 26.985,27.39 25.996,27.374C23.882,26.989 21.785,26.322 19.625,26.095C16.748,25.649 13.819,25.971 10.971,25.844L11.254,25.855ZM24.294,19.06C24.649,18.753 25.004,18.843 24.771,19.095C25.422,18.941 25.704,18.659 25.56,18.453C25.573,18.177 24.137,18.975 24.151,19.067L24.15,19.111L24.294,19.06ZM24.998,18.873C25.061,18.672 25.228,18.611 25.31,18.626C25.392,18.641 25.388,18.733 25.111,18.835L24.998,18.873ZM2.135,13.401C2.432,13.089 1.132,13.38 1.968,12.835C1.113,13.356 2.004,12.237 1.222,12.529C1.605,12.033 0.818,12.984 1.13,12.279C0.543,12.292 0.105,12.135 0.664,11.805C-0.133,11.921 1.33,11.265 0.682,11.155C0.823,10.941 0.099,11.351 0.613,10.642C1.967,9.304 3.516,8.123 4.778,6.672C6.564,4.813 7.819,2.525 9.359,0.525C9.664,0.185 9.999,1.187 10.502,1.526C10.885,2.135 11.193,1.029 11.439,1.612C11.657,1.219 11.615,1.725 11.681,1.776C11.483,2.791 12.528,1.307 11.977,2.473C11.527,4.524 10.042,6.14 8.83,7.789C7.109,9.945 5.151,12 2.738,13.375C2.604,13.435 2.224,13.551 2.135,13.401Z"/>
        </g>
    </g>
</svg>
